status/symbolic/user-status-pending-symbolic.svg

<svg enable-background="new" height="16" width="16" xmlns="http://www.w3.org/2000/svg">
  <g fill="#bebebe">
    <path d="m12.285714 2.5s1.714286 0 1.714286 1.6923077h-12c0-1.6923077 1.6875429-1.6923077 1.6875429-1.6923077zm1.714286 6.76923c0 1.692308-1.714286 1.692308-1.714286 1.692308h-.857143l-1.7142853 2.538462-1.7142857-2.538462h-4.2857142c-.9497144 0-1.7142858-.75477-1.7142858-1.692308z" opacity=".35" />
    <path d="m3.7142858 5.0714286c-.9497144 0-1.7142858.7645714-1.7142858 1.7142856 0 .9497144.7645714 1.7142858 1.7142858 1.7142858.9497142 0 1.7142856-.7645714 1.7142856-1.7142858 0-.9497142-.7645714-1.7142856-1.7142856-1.7142856zm4.2857142 0c-.9497143 0-1.7142858.7645714-1.7142858 1.7142856 0 .9497144.7645715 1.7142858 1.7142858 1.7142858s1.7142854-.7645714 1.7142854-1.7142858c0-.9497142-.7645711-1.7142856-1.7142854-1.7142856zm4.285714 0c-.949714 0-1.714286.7645714-1.714286 1.7142856 0 .9497144.764572 1.7142858 1.714286 1.7142858s1.714286-.7645714 1.714286-1.7142858c0-.9497142-.764572-1.7142856-1.714286-1.7142856z" />
  </g>
</svg>

<?xml version="1.0" encoding="UTF-8" standalone="no"?>
<!-- Created with Inkscape (http://www.inkscape.org/) -->

<svg
   xmlns:dc="http://purl.org/dc/elements/1.1/"
   xmlns:cc="http://creativecommons.org/ns#"
   xmlns:rdf="http://www.w3.org/1999/02/22-rdf-syntax-ns#"
   xmlns:svg="http://www.w3.org/2000/svg"
   xmlns="http://www.w3.org/2000/svg"
   xmlns:sodipodi="http://sodipodi.sourceforge.net/DTD/sodipodi-0.dtd"
   xmlns:inkscape="http://www.inkscape.org/namespaces/inkscape"
   id="svg7384"
   style="enable-background:new"
   height="16"
   width="16"
   version="1.1"
   inkscape:version="0.91 r13725"
   sodipodi:docname="user-status-pending-symbolic.svg">
  <sodipodi:namedview
     pagecolor="#ffffff"
     bordercolor="#666666"
     borderopacity="1"
     objecttolerance="10"
     gridtolerance="10"
     guidetolerance="10"
     inkscape:pageopacity="0"
     inkscape:pageshadow="2"
     inkscape:window-width="640"
     inkscape:window-height="480"
     id="namedview7448"
     showgrid="false"
     inkscape:zoom="41.1875"
     inkscape:cx="3.6783005"
     inkscape:cy="8"
     inkscape:current-layer="svg7384" />
  <metadata
     id="metadata90">
    <rdf:RDF>
      <cc:Work
         rdf:about="">
        <dc:format>image/svg+xml</dc:format>
        <dc:type
           rdf:resource="http://purl.org/dc/dcmitype/StillImage" />
        <dc:title>Paper Symbolic Icon Theme</dc:title>
      </cc:Work>
    </rdf:RDF>
  </metadata>
  <title
     id="title8473">Paper Symbolic Icon Theme</title>
  <defs
     id="defs7386">
    <filter
       id="filter7554"
       style="color-interpolation-filters:sRGB">
      <feBlend
         id="feBlend7556"
         in2="BackgroundImage"
         mode="darken" />
    </filter>
  </defs>
  <path
     inkscape:connector-curvature="0"
     d="m 12.285714,2.5 c 0,0 1.714286,0 1.714286,1.6923077 l -12,0 C 2,2.5 3.6875429,2.5 3.6875429,2.5 Z M 14,9.26923 c 0,1.692308 -1.714286,1.692308 -1.714286,1.692308 l -0.857143,0 L 9.7142857,13.5 8,10.961538 l -4.2857142,0 C 2.7645714,10.961538 2,10.206768 2,9.26923 Z"
     style="opacity:0.35;fill:#bebebe"
     id="path3003-1" />
  <path
     inkscape:connector-curvature="0"
     d="M 3.7142858,5.0714286 C 2.7645714,5.0714286 2,5.836 2,6.7857142 2,7.7354286 2.7645714,8.5 3.7142858,8.5 4.664,8.5 5.4285714,7.7354286 5.4285714,6.7857142 5.4285714,5.836 4.664,5.0714286 3.7142858,5.0714286 Z M 8,5.0714286 C 7.0502857,5.0714286 6.2857142,5.836 6.2857142,6.7857142 6.2857142,7.7354286 7.0502857,8.5 8,8.5 8.9497143,8.5 9.7142854,7.7354286 9.7142854,6.7857142 9.7142854,5.836 8.9497143,5.0714286 8,5.0714286 Z m 4.285714,0 C 11.336,5.0714286 10.571428,5.836 10.571428,6.7857142 10.571428,7.7354286 11.336,8.5 12.285714,8.5 13.235428,8.5 14,7.7354286 14,6.7857142 14,5.836 13.235428,5.0714286 12.285714,5.0714286 Z"
     style="color:#000000;fill:#bebebe;enable-background:new"
     id="rect8040-5-8" />
</svg>
